X: 32738
T: Polly Put The Kettle On
R: hornpipe
M: 4/4
K: Gmajor
|:gfed efge|dcBA Bcd2|gfed efge|fgaf g4:|
|:gabg afd2|efge dBG2|abc'a d'bgb|c'afa g4:|
|:BcdB cde2|ABcA Bcd2|G3 B cBAd|cAB/c/A G4:|

